X: 180
T: No_89_Song_of_the_Bear_Path.krn
N: Derived from No_89_Song_of_the_Bear_Path.krn
%%abc-version 2.0
%%abcx-abcm2ps-target-version 5.9.1 (29 Sep 2008)
%%abc-creator hum2abc beta
%%abcx-conversion-date 2019/03/15 08:29:13
%%humdrum-veritas 317297348
%%humdrum-veritas-data 2107083346
%%linebreak <none>
%%barnumbers 0
L: 1/16
M: 3/8
%%staves {1 2}
V: 1 clef=bass
V: 2 clef=bass
K: F
[V:1] D2 [I:setbarnb 1]| 
[V:2] z2 | 
[V:1] D2D2D2 | 
[V:2] G,,2G,,2G,,2 | 
[V:1] D4A,2 ||  
[V:2] G,,2G,,2G,,2 ||  
[V:1] [M:2/8]A,4 ||  
[V:2] [M:2/8]G,,2G,,2 ||  
[V:1] [M:4/8]D2 D2 D2 D3/A,/ | 
[V:2] [M:4/8]z8 | 
[V:1] A,A, G,G,- G,3/F,/ F,2 ]|:  
[V:2] z8 ]|:  
[V:1] A,2 A,2 A,2 A,3/A,/ | 
[V:2] z8 | 
[V:1] A,A, G,G,- G,3/G,/ F,2 | 
[V:2] z8 | 
[V:1] G,2 G,2 G,2 G,3/G,/ | 
[V:2] z8 | 
[V:1] G,G, G,F,- F,3/F,/ D,2 | 
[V:2] z8 | 
[V:1] D,2 D,2 D,2 D,3/F,/ | 
[V:2] z8 | 
[V:1] F,F, F,F,- F,3/F,/ D,2 | 
[V:2] z8 | 
[V:1] D,2 D,2 D,2 D,3/D,/ | 
[V:2] z8 | 
[V:1] D,D, D,D,- D,3/D,/ D,2 | 
[V:2] z8 | 
[V:1] D,2 D,2 D,3A, ||  
[V:2] z8 ||  
[V:1] [M:2/8]A,G,G,G, :|]  
[V:2] [M:2/8]z4 :|]  



